packages/kaspersky-hexa-ui-icons/src/iconsSVGs/24/Pcn.svg

<svg width="24" height="24" viewBox="0 0 24 24" fill="none" xmlns="http://www.w3.org/2000/svg">
<path d="M6 5C5.44772 5 5 5.44772 5 6V18C5 18.5523 5.44772 19 6 19C6.55228 19 7 19.4477 7 20C7 20.5523 6.55228 21 6 21C4.34315 21 3 19.6569 3 18V6C3 4.34315 4.34315 3 6 3H12C12.5523 3 13 3.44772 13 4C13 4.55228 12.5523 5 12 5H6Z" fill="black"/>
<path d="M17 4C17 3.44772 17.4477 3 18 3C19.6569 3 21 4.34315 21 6V18C21 19.6569 19.6569 21 18 21H12C11.4477 21 11 20.5523 11 20C11 19.4477 11.4477 19 12 19H18C18.5523 19 19 18.5523 19 18V6C19 5.44772 18.5523 5 18 5C17.4477 5 17 4.55228 17 4Z" fill="black"/>
<path fill-rule="evenodd" clip-rule="evenodd" d="M9 8C9 7.44772 9.44771 7 10 7H12.5C14.433 7 16 8.567 16 10.5C16 12.433 14.433 14 12.5 14H11V16C11 16.5523 10.5523 17 10 17C9.44771 17 9 16.5523 9 16V8ZM11 12V9H12.5C13.3284 9 14 9.67157 14 10.5C14 11.3284 13.3284 12 12.5 12H11Z" fill="black"/>
<path d="M16 4C16 4.55228 15.5523 5 15 5C14.4477 5 14 4.55228 14 4C14 3.44772 14.4477 3 15 3C15.5523 3 16 3.44772 16 4Z" fill="black"/>
<path d="M9 21C9.55229 21 10 20.5523 10 20C10 19.4477 9.55229 19 9 19C8.44771 19 8 19.4477 8 20C8 20.5523 8.44771 21 9 21Z" fill="black"/>
</svg>

<svg xmlns="http://www.w3.org/2000/svg" width="24" height="24" fill="none" viewBox="0 0 24 24"><path fill="#000" fill-rule="evenodd" d="M6 5c-.5523 0-1 .4477-1 1v12c0 .5523.4477 1 1 1s1 .4477 1 1-.4477 1-1 1c-1.6569 0-3-1.3431-3-3V6c0-1.6569 1.3431-3 3-3h6c.5523 0 1 .4477 1 1s-.4477 1-1 1zm9 0c.5523 0 1-.4477 1-1s-.4477-1-1-1-1 .4477-1 1 .4477 1 1 1m2-1c0-.5523.4477-1 1-1 1.6569 0 3 1.3431 3 3v12c0 1.6569-1.3431 3-3 3h-6c-.5523 0-1-.4477-1-1s.4477-1 1-1h6c.5523 0 1-.4477 1-1V6c0-.5523-.4477-1-1-1s-1-.4477-1-1M9 8c0-.5523.4477-1 1-1h2.5c1.933 0 3.5 1.567 3.5 3.5S14.433 14 12.5 14H11v2c0 .5523-.4477 1-1 1s-1-.4477-1-1zm2 4V9h1.5c.8284 0 1.5.6716 1.5 1.5s-.6716 1.5-1.5 1.5zm-1 8c0 .5523-.4477 1-1 1s-1-.4477-1-1 .4477-1 1-1 1 .4477 1 1"/></svg>
